assets/images/clients/METRO.svg

<svg width="300" height="120" viewBox="0 0 300 120" fill="none" xmlns="http://www.w3.org/2000/svg">
<path d="M212.93 65.7217C212.894 66.014 212.785 66.7829 211.79 66.8828H203.05C202.055 66.7829 201.874 66.014 201.836 65.7217V52.141C201.873 51.8479 202.011 51.2252 203.006 51.1253H211.794C212.789 51.2252 212.894 51.8479 212.93 52.141V65.7217ZM215.957 46.0085H198.811C196.234 46.2176 194.058 47.533 193.768 50.4756V67.2894C194.058 70.2319 196.234 71.7907 198.811 72H215.957C218.533 71.7907 220.708 70.2319 221 67.2894V50.4756C220.708 47.533 218.533 46.2176 215.957 46.0085ZM146.566 51.1253H138.901V46.0085H162.3V51.1253H154.635V72H146.566V51.1253ZM136.48 51.1253V46.0085H115.501V72L136.759 71.9944L136.767 66.8832H123.591L123.592 61.3163H136.48V56.2121H123.592V51.1253H136.48ZM183.279 55.154C183.279 55.7165 183.14 56.2099 182.137 56.2099H172.789V51.1082H182.149C183.287 51.1082 183.279 51.8581 183.279 52.3264V55.154ZM185.514 61.8959C188.031 61.6931 190.54 59.9684 190.54 57.1359V50.7192C190.248 47.7902 188.065 46.2086 185.478 46H164.72L164.721 72H172.789V61.8959H176.001L181.245 72H190.524L184.279 61.8959H185.514ZM98.7997 72L104.206 55.674V72H112.274V46.0085H101.382L96.1372 59.0045L90.8924 46.0085H80V72H88.0686V55.674L93.5146 72H98.7997Z" fill="#949494"/>
</svg>

<svg width="300" height="120" viewBox="0 0 300 120" fill="none" xmlns="http://www.w3.org/2000/svg"><path d="M212.93 65.722c-.036.292-.145 1.06-1.14 1.16h-8.74c-.995-.1-1.176-.868-1.214-1.16V52.14c.037-.293.175-.916 1.17-1.016h8.788c.995.1 1.1.723 1.136 1.016v13.58Zm3.027-19.713h-17.146c-2.577.209-4.753 1.524-5.043 4.467v16.813c.29 2.943 2.466 4.502 5.043 4.711h17.146c2.576-.21 4.751-1.768 5.043-4.71V50.475c-.292-2.943-2.467-4.258-5.043-4.468Zm-69.391 5.116h-7.665v-5.117H162.3v5.117h-7.665V72h-8.069V51.125Zm-10.086 0v-5.117h-20.979V72l21.258-.006.008-5.11h-13.176l.001-5.568h12.888v-5.104h-12.888v-5.087h12.888Zm46.799 4.029c0 .563-.139 1.056-1.142 1.056h-9.348v-5.102h9.36c1.138 0 1.13.75 1.13 1.218v2.828Zm2.235 6.742c2.517-.203 5.026-1.928 5.026-4.76v-6.417c-.292-2.929-2.475-4.51-5.062-4.719H164.72l.001 26h8.068V61.896h3.212L181.245 72h9.279l-6.245-10.104h1.235ZM98.8 72l5.406-16.326V72h8.068V46.008h-10.892l-5.245 12.996-5.245-12.995H80V72h8.069V55.674L93.515 72H98.8Z" fill="#949494"/></svg>
